X: 70
T: No_164_Woman's_Dance_Song.krn
%%abc-version 2.0
%%abcx-abcm2ps-target-version 5.9.1 (29 Sep 2008)
%%abc-creator hum2abc beta
%%abcx-conversion-date 2020/08/10 18:54:56
%%gracespace 0 6 6
%%humdrum-veritas 2989294230
%%humdrum-veritas-data 1028359979
%%linebreak <none>
%%barnumbers 0
L: 1/4
M: 3/4
%%staves {1 2}
V: 1 clef=bass
V: 2 clef=bass
K: B
[V:1] [K:clef=bass][M:3/4]D2C | 
[V:2] [K:clef=bass][M:3/4](3!accent!G,,/ z/ G,,/ (3!accent!G,,/ z/ G,,/ (3!accent!G,,/ z/ G,,/ | 
[V:1] D2C | 
[V:2] z3 | 
[V:1] B,G,3/G,/ ||  
[V:2] z3 ||  
[V:1] [M:2/4]G,D, ||  
[V:2] [M:2/4]z2 ||  
[V:1] [M:3/4]G,/G,/ G,/>G,/G, ||  
[V:2] [M:3/4]z3 ||  
[V:1] [M:2/4]DC | 
[V:2] [M:2/4]z2 | 
[V:1] DC | 
[V:2] z2 | 
[V:1] B,G,/G,/ | 
[V:2] z2 | 
[V:1] G,/>G,/G, | 
[V:2] z2 | 
[V:1] B,G, | 
[V:2] z2 | 
[V:1] F,D,/D,/ | 
[V:2] z2 | 
[V:1] D,/>D,/D, | 
[V:2] z2 | 
[V:1] G,F, | 
[V:2] z2 | 
[V:1] G,F, | 
[V:2] z2 | 
[V:1] D,C, | 
[V:2] z2 | 
[V:1] D,C, | 
[V:2] z2 | 
[V:1] B,,C,/B,,/ ||  
[V:2] z2 ||  
[V:1] [M:3/4]G,,G,,3/G,,/ | 
[V:2] [M:3/4]z3 | 
[V:1] G,,3 |]  
[V:2] z3 |]  


